symbols/web/hide_source/materialsymbolsoutlined/hide_source_wght100grad200_48px.svg

<svg xmlns="http://www.w3.org/2000/svg" height="48" width="48"><path d="m40.4 42.35-4.55-4.5q-2.35 2-5.375 3.175Q27.45 42.2 24 42.2q-3.75 0-7.075-1.425t-5.8-3.9q-2.475-2.475-3.9-5.8Q5.8 27.75 5.8 24q0-3.45 1.175-6.475Q8.15 14.5 10.15 12.15L5.65 7.6 6.9 6.4l34.7 34.7ZM24 40.45q3.1 0 5.825-1.025T34.6 36.55L11.45 13.4q-1.85 2.05-2.875 4.775Q7.55 20.9 7.55 24q0 6.85 4.8 11.65 4.8 4.8 11.65 4.8Zm15.45-6.7-1.3-1.3q1.05-1.7 1.675-3.875T40.45 24q0-6.85-4.8-11.65-4.8-4.8-11.65-4.8-2.4 0-4.575.625Q17.25 8.8 15.55 9.85l-1.3-1.3q2.05-1.25 4.5-2T24 5.8q3.8 0 7.125 1.4t5.8 3.875q2.475 2.475 3.875 5.8Q42.2 20.2 42.2 24q0 2.8-.75 5.25t-2 4.5Zm-12.6-12.6ZM23 25Z"/></svg>

<svg xmlns="http://www.w3.org/2000/svg" height="48" width="48"><path d="M40.4 42.35 35.85 37.85Q33.5 39.85 30.475 41.025Q27.45 42.2 24 42.2Q20.25 42.2 16.925 40.775Q13.6 39.35 11.125 36.875Q8.65 34.4 7.225 31.075Q5.8 27.75 5.8 24Q5.8 20.55 6.975 17.525Q8.15 14.5 10.15 12.15L5.65 7.6L6.9 6.4L41.6 41.1ZM24 40.45Q27.1 40.45 29.825 39.425Q32.55 38.4 34.6 36.55L11.45 13.4Q9.6 15.45 8.575 18.175Q7.55 20.9 7.55 24Q7.55 30.85 12.35 35.65Q17.15 40.45 24 40.45ZM39.45 33.75 38.15 32.45Q39.2 30.75 39.825 28.575Q40.45 26.4 40.45 24Q40.45 17.15 35.65 12.35Q30.85 7.55 24 7.55Q21.6 7.55 19.425 8.175Q17.25 8.8 15.55 9.85L14.25 8.55Q16.3 7.3 18.75 6.55Q21.2 5.8 24 5.8Q27.8 5.8 31.125 7.2Q34.45 8.6 36.925 11.075Q39.4 13.55 40.8 16.875Q42.2 20.2 42.2 24Q42.2 26.8 41.45 29.25Q40.7 31.7 39.45 33.75ZM26.85 21.15Q26.85 21.15 26.85 21.15Q26.85 21.15 26.85 21.15Q26.85 21.15 26.85 21.15Q26.85 21.15 26.85 21.15Q26.85 21.15 26.85 21.15Q26.85 21.15 26.85 21.15ZM23 25Q23 25 23 25Q23 25 23 25Q23 25 23 25Q23 25 23 25Q23 25 23 25Q23 25 23 25Z"/></svg>
